icons/svg/pi-box.svg

﻿<?xml version="1.0" encoding="utf-8"?>
<!DOCTYPE svg PUBLIC "-//W3C//DTD SVG 1.1//EN" "http://www.w3.org/Graphics/SVG/1.1/DTD/svg11.dtd">
<svg xmlns="http://www.w3.org/2000/svg" xmlns:xlink="http://www.w3.org/1999/xlink" version="1.1" baseProfile="full" width="24" height="24" viewBox="0 0 24.00 24.00" enable-background="new 0 0 24.00 24.00" xml:space="preserve">
	<path fill="#000000" fill-opacity="1" stroke-width="0.2" stroke-linejoin="round" d="M 5,2.9978C 3.89125,2.9978 2.9975,3.89624 2.9975,5L 2.9975,18.9988C 2.9975,20.1025 3.89125,20.9963 5,20.9963L 18.9988,20.9963C 20.1025,20.9963 21.0013,20.1025 21.0013,18.9988L 21.0013,5C 21.0013,3.89624 20.1025,2.9978 18.9988,2.9978M 6.00125,7.0025L 17.0025,7.0025L 17.0025,8.99875L 15,8.99875L 15,13.9987C 15,14.5513 15.4488,15 16.0012,15C 16.5525,15 17.0025,14.5513 17.0025,13.9987L 18.9988,13.9987C 18.9988,15.6588 17.6563,17.0025 16.0012,17.0025C 14.3413,17.0025 12.9975,15.6588 12.9975,13.9987L 12.9975,8.99875L 10,8.99875L 10,17.0025L 7.9975,17.0025L 7.9975,8.99875L 6.00125,8.99875"/>
</svg>

<svg xmlns="http://www.w3.org/2000/svg" version="1.1" baseProfile="full" width="24" height="24" viewBox="0 0 24.00 24.00" xml:space="preserve"><path fill="#000" fill-opacity="1" stroke-width=".2" stroke-linejoin="round" d="M5 2.998c-1.11 0-2.002.898-2.002 2.002v14c0 1.102.893 1.996 2.002 1.996h14c1.102 0 2-.893 2-1.997V5c0-1.104-.898-2.002-2-2.002M6 7.003h11.003v1.996H15v5c0 .55.45 1 1 1 .552 0 1.003-.45 1.003-1h1.996c0 1.66-1.344 3.003-3 3.003C14.34 17.003 13 15.66 13 14V9H10v8.003H7.997V9H6.002"/></svg>
